storage/app/icons/phosphoricons/light/keyboard-light.svg

<svg xmlns="http://www.w3.org/2000/svg" fill="currentColor" viewBox="0 0 256 256"><path d="M224 50H32a14 14 0 0 0-14 14v128a14 14 0 0 0 14 14h192a14 14 0 0 0 14-14V64a14 14 0 0 0-14-14m2 142a2 2 0 0 1-2 2H32a2 2 0 0 1-2-2V64a2 2 0 0 1 2-2h192a2 2 0 0 1 2 2Zm-20-64a6 6 0 0 1-6 6H56a6 6 0 0 1 0-12h144a6 6 0 0 1 6 6m0-32a6 6 0 0 1-6 6H56a6 6 0 0 1 0-12h144a6 6 0 0 1 6 6M70 160a6 6 0 0 1-6 6h-8a6 6 0 0 1 0-12h8a6 6 0 0 1 6 6m96 0a6 6 0 0 1-6 6H96a6 6 0 0 1 0-12h64a6 6 0 0 1 6 6m40 0a6 6 0 0 1-6 6h-8a6 6 0 0 1 0-12h8a6 6 0 0 1 6 6"/></svg>

<svg xmlns="http://www.w3.org/2000/svg" viewBox="0 0 256 256" fill="currentColor"><path d="M224,50H32A14,14,0,0,0,18,64V192a14,14,0,0,0,14,14H224a14,14,0,0,0,14-14V64A14,14,0,0,0,224,50Zm2,142a2,2,0,0,1-2,2H32a2,2,0,0,1-2-2V64a2,2,0,0,1,2-2H224a2,2,0,0,1,2,2Zm-20-64a6,6,0,0,1-6,6H56a6,6,0,0,1,0-12H200A6,6,0,0,1,206,128Zm0-32a6,6,0,0,1-6,6H56a6,6,0,0,1,0-12H200A6,6,0,0,1,206,96ZM70,160a6,6,0,0,1-6,6H56a6,6,0,0,1,0-12h8A6,6,0,0,1,70,160Zm96,0a6,6,0,0,1-6,6H96a6,6,0,0,1,0-12h64A6,6,0,0,1,166,160Zm40,0a6,6,0,0,1-6,6h-8a6,6,0,0,1,0-12h8A6,6,0,0,1,206,160Z"/></svg>
